X:1
T:Title
%%score 1 { 2 | 3 }
L:1/8
Q:1/4=105
M:4/4
K:G
V:1 treble nm="Grand Piano, Unnamed-000"
V:2 treble nm="Choir Pad, In the Sweet By and By"
V:3 bass 
V:1
 [DG]>[DA] [GB]2 [DA][DG] [EA]2 | [EG][CE] [B,D]6 | [DG]>[DA] [DB]2 [DB]>[DB] [Gd]2 | %3
w: By~Joseph~Philbrick~Webster * * * * *|||
 [Gd]>[DB] [DA]6 | [DG]>[DA] [GB]2 [DA][DG] [EA]2 | [EG][CE] [B,D]6 | %6
w: |||
 [DG]>[DA] [DB]2 [DA][DG] [EA]2 | [DG][DF] [DG]6 | [GB]>[Ac] [Bd]6 | [Bd]>[GB] [FA]6 | %10
w: ||||
 [FA]>[GB] [Ac]2 [Ac][Ac] [Ac]2 | [GB][FA] [GB]6 | [GB]>[Ac] [Bd]6 | [GB]>[EA] [EG]6 | %14
w: ||||
 [DF][CE] [B,D]2 [DG][DB] [DA]2 | [DG][DF] [DG]6- | [DG]2 z2 z4 |] %17
w: |||
V:2
 B,>C D2 DD C2 | G,G, G,6 | G,>F, D2 D>G, B,2 | B,>D F,6 | B,>[K:treble]C D2 DD C2 | G,G, G,6 | %6
 G,>F, G,2 G,G, C2 | B,A, B,6 | z4 G,A, B,2 | D>D D2 DD D2 | D>D D2 DD D2 | DD D2 DD D2 | %12
 z4[K:bass] G,A, B,2 | D>D[K:treble] C2 CC C2 | G,[K:bass]G, G,2 B,D C2 | B,A, B,6- | B,2 z2 z4 |] %17
V:3
 G,>G, G,2 B,,B,, C,2 | C,C, G,,6 | B,,>D, G,2 G,2 G,2 | G,>G, D,6 | G,>G, G,2 B,,B,, C,2 | %5
 C,C, G,,6 | B,,>D, z2 B,,B,, C,2 | D,D, [G,,G,]6 | z4 G,,G,, G,,2 | G,>G, D,2 D,D, D,2 | %10
 D,>D, B,,2 B,,B,, B,,2 | B,,B,, G,2 G,,G,, G,,2 | z4 G,,G,, G,,2 | G,,>B,, C,2 C,C, C,2 | %14
 C,C, D,2 D,D, D,2 | D,D, [G,,G,]6- | [G,,G,]2 z2 z4 |] %17

